%
O2224
(This Post Processor is distributed on an "AS IS" BASIS,)
(WITHOUT WARRANTIES OR CONDITIONS OF ANY KIND, either express or implied.)
G00 G18 G40 G80 G97 G99

N1 ( Desbaste DE1 )
G54
T0101 (CNMG 431 80DEG SQR HOLDER)
G97 S2000 M03
G99 G18 G00 Z3.354
M08
X54.717
G01 X48.01 Z0 F.4
Z-100.855
G03 X50.01 Z-102.371 R11.9
G01 X50.971 Z-102.509
G00 X56.971
Z.354
X46.765
G01 X46.058 Z0
Z-99.746
G03 X48.01 Z-100.855 R11.9
G01 X49.002 Z-100.918
G00 X55.002
Z.354
X44.812
G01 X44.105 Z0
Z-16.108
X44.475 Z-16.316
X45.239 Z-17.03
X45.51 Z-17.786
Z-99.479
G03 X46.058 Z-99.746 R11.9
G01 X47.058
G00 X53.058
Z.354
X42.86
G01 X42.153 Z0
Z-13.75
G03 X43.004 Z-15.571 R14.349
G01 X43.52 Z-15.779
X44.105 Z-16.108
X45.103 Z-16.137
G00 X51.103
Z.354
X40.907
G01 X40.2 Z0
Z-11.802
X40.883 Z-12.023
X41.333 Z-12.584
G03 X42.153 Z-13.75 R14.349
G01 X43.035 Z-13.986
G00 X49.035
Z.354
X38.955
G01 X38.248 Z0
Z-11.172
X40.2 Z-11.802
X41.178 Z-11.697
G00 X47.178
Z.354
X37.003
G01 X36.296 Z0
Z-10.541
X38.248 Z-11.172
X39.226 Z-11.067
G00 X45.226
Z.354
X35.05
G01 X34.343 Z0
Z-9.911
X36.296 Z-10.541
X37.273 Z-10.436
G00 X43.273
Z.354
X33.098
G01 X32.391 Z0
Z-9.28
X34.343 Z-9.911
X35.321 Z-9.806
G00 X41.321
Z.354
X31.145
G01 X30.438 Z0
Z-8.65
X32.391 Z-9.28
X33.368 Z-9.175
G00 X39.368
Z.354
X29.193
G01 X28.486 Z0
Z-7.75
X28.861 Z-7.998
X29.491 Z-8.509
X30.124 Z-8.548
X30.438 Z-8.65
X31.416 Z-8.545
G00 X37.416
Z.354
X27.241
G01 X26.534 Z0
Z-6.655
X26.851 Z-6.795
X27.913 Z-7.37
X28.486 Z-7.75
X29.476 Z-7.819
G00 X35.476
Z.354
X25.288
G01 X24.581 Z0
Z-5.882
X25.68 Z-6.278
X26.534 Z-6.655
X27.532 Z-6.625
G00 X33.532
Z.354
X23.336
G01 X22.629 Z0
Z-5.332
X23.05 Z-5.428
X24.41 Z-5.821
X24.581 Z-5.882
X25.568 Z-5.802
G00 X31.568
Z.354
X21.383
G01 X20.676 Z0
Z-4.935
X21.611 Z-5.099
X22.629 Z-5.332
X23.566 Z-5.157
G00 X29.566
Z.354
X19.431
G01 X18.724 Z0
Z-4.656
X20.102 Z-4.834
X20.676 Z-4.935
X21.578 Z-4.719
G00 X27.578
Z.354
X17.479
G01 X16.772 Z0
Z-4.237
G03 X16.995 Z-4.309 R16.4
G01 X17.787 Z-4.565
X18.529 Z-4.63
X18.724 Z-4.656
X19.586 Z-4.402
G00 X25.586
Z.354
X15.526
G01 X14.819 Z0
Z-3.664
G03 X16.772 Z-4.237 R16.4
G01 X17.747 Z-4.128
G00 X23.747
Z.354
X13.574
G01 X12.867 Z0
Z-3.177
G03 X14.819 Z-3.664 R16.4
G01 X15.778 Z-3.522
G00 X21.778
Z.354
X11.621
G01 X10.914 Z0
Z-2.767
G03 X12.867 Z-3.177 R16.4
G01 X13.804 Z-3.003
G00 X19.804
Z.354
X9.669
G01 X8.962 Z0
Z-2.429
G03 X10.914 Z-2.767 R16.4
G01 X11.827 Z-2.563
G00 X17.827
Z.354
X7.717
G01 X7.01 Z0
Z-2.157
G03 X8.962 Z-2.429 R16.4
G01 X9.848 Z-2.196
G00 X15.848
Z.354
X5.764
G01 X5.057 Z0
Z-1.949
G03 X7.01 Z-2.157 R16.4
G01 X7.865 Z-1.898
G00 X13.865
Z.354
X3.812
G01 X3.105 Z0
Z-1.802
G03 X5.057 Z-1.949 R16.4
G01 X5.879 Z-1.664
G00 X11.879
Z.354
X1.86
G01 X1.152 Z0
Z-1.715
G03 X3.105 Z-1.802 R16.4
G01 X3.891 Z-1.493
G00 X9.891
Z.354
X-.093
G01 X-.8 Z0
Z-1.686
G03 X1.152 Z-1.715 R16.4
G01 X1.9 Z-1.383
G00 X7.9
Z-.432
X-1.507
Z-2.332
G01 X-.8 Z-2.686
G03 X15.91 Z-5.149 R15.4
G01 X17.041 Z-5.514
X18.104 Z-5.608
X19.519 Z-5.791
X20.863 Z-6.028
X22.132 Z-6.318
X23.323 Z-6.662
X24.431 Z-7.06
X25.45 Z-7.511
X26.376 Z-8.013
X27.208 Z-8.563
X28.169 Z-9.343
Z-9.498
X29.378
X39.264 Z-12.69
X39.477 Z-12.956
G03 X41.148 Z-16.122 R13.349
G01 X41.312 Z-16.173
X42.136 Z-16.505
X42.823 Z-16.892
X43.326 Z-17.362
X43.51 Z-17.875
Z-99.923
G03 X49.972 Z-104.839 R10.9
G01 X50.861 Z-105.068
G00 X56.861
X200. Z100. M09
M01

N2 ( Desbaste DE3 )
G54
T0303 (CNMG 431 80DEG SQR HOLDER)
G97 S2000 M03
G99 G18 G00 Z-17.146
M08
X50.484
G01 X44.484 Z-20.146 F.4
X43.51 Z-20.258
X41.51 Z-21.859
Z-97.961
G03 X43.51 Z-98.637 R11.9
G01 X44.5 Z-98.567
G00 X50.5
Z-21.746
X42.484
G01 X41.51 Z-21.859
X39.526 Z-23.446
Z-97.424
G03 X41.51 Z-97.961 R11.9
G01 X42.481 Z-97.842
G00 X48.481
Z-23.333
X40.501
G01 X39.526 Z-23.446
X37.543 Z-25.033
Z-97.001
G03 X39.526 Z-97.424 R11.9
G01 X40.47 Z-97.259
G00 X46.47
Z-24.92
X38.517
G01 X37.543 Z-25.033
X35.559 Z-26.62
Z-96.679
G03 X37.543 Z-97.001 R11.9
G01 X38.453 Z-96.794
G00 X44.453
Z-26.508
X36.534
G01 X35.559 Z-26.62
X33.576 Z-28.207
Z-94.334
G03 X34.995 Z-96.604 R3.572
X35.559 Z-96.679 R11.9
G01 X36.43 Z-96.432
G00 X42.43
Z-28.095
X34.55
G01 X33.576 Z-28.207
X31.592 Z-29.794
Z-93.43
G03 X33.576 Z-94.334 R3.572
G01 X34.566 Z-94.405
G00 X40.566
Z-29.682
X32.567
G01 X31.592 Z-29.794
X29.609 Z-31.381
Z-47.395
G03 X29.868 Z-47.721 R1.9
G01 X30.081 Z-48.082
G03 X30.235 Z-48.654 R1.9
G01 X30.22 Z-49.045
G03 X30.021 Z-49.617 R1.9
G01 X29.729 Z-50.05
G03 X29.609 Z-50.205 R1.9
G01 Z-93.012
G03 X31.592 Z-93.43 R3.572
G01 X32.565 Z-93.313
G00 X38.565
Z-31.269
X30.583
G01 X29.609 Z-31.381
X27.625 Z-32.968
Z-46.023
G03 X27.637 Z-46.03 R1.9
G01 X28.751 Z-46.698
G03 X29.135 Z-46.975 R1.9
G01 X29.525 Z-47.318
G03 X29.609 Z-47.395 R1.9
G01 X30.56 Z-47.55
G00 X36.56
Z-32.856
X28.6
G01 X27.625 Z-32.968
X25.642 Z-34.556
Z-45.057
X27.348 Z-45.875
G03 X27.625 Z-46.023 R1.9
G01 X28.622 Z-46.066
G00 X34.622
Z-34.443
X26.616
G01 X25.642 Z-34.556
X23.658 Z-36.143
Z-39.425
X24.558
G00 X29.658
Z-36.143
X24.558
G01 X23.658
X21.864 Z-37.579
X21.992 Z-37.752
X22.398 Z-38.051
G03 X22.63 Z-38.246 R1.9
G01 X23.111 Z-38.712
G03 X23.31 Z-38.94 R1.9
G01 X23.627 Z-39.38
G03 X23.658 Z-39.425 R1.9
X23.77 Z-39.631 R1.9
G01 X23.946 Z-40.048
G03 X24.028 Z-40.416 R1.9
G01 X24.047 Z-41.183
G03 X23.976 Z-41.575 R1.9
G01 X23.705 Z-42.263
G03 X23.658 Z-42.365 R1.9
G01 Z-44.106
X24.658 Z-44.096
X25.558
G00 X30.658
Z-42.365
X24.708
G01 X23.658
G03 X23.641 Z-42.398 R1.9
G01 X23.068 Z-43.442
X23.036 Z-43.614
X23.056 Z-43.681
X23.159 Z-43.794
X23.637 Z-44.096
X25.642 Z-45.057
X26.642 Z-45.047
G00 X32.642
Z-50.205
G01 X29.609
G03 X29.351 Z-50.449 R1.9
G01 X27.625 Z-51.83
Z-81.912
G03 X28.063 Z-83.78 R1.9
G01 X27.625 Z-84.296
Z-92.09
X28.534 Z-92.877
G02 X28.684 Z-92.927 R.1
G03 X29.609 Z-93.012 R3.572
G01 X30.468 Z-92.756
G00 X36.468
Z-51.717
X28.6
G01 X27.625 Z-51.83
X25.642 Z-53.417
Z-58.968
G03 Z-63.809 R6.9
G01 Z-73.007
G03 Z-77.849 R6.9
G01 Z-80.66
X26.637 Z-80.71
X27.537
G00 X32.637
Z-77.849
X26.691
G01 X25.642
G03 X24.422 Z-79.085 R6.9
G01 X23.838 Z-79.552
G02 X23.886 Z-79.613 R.1
G03 X25.642 Z-80.66 R53.045
X27.576 Z-81.879 R53.045
X27.625 Z-81.912 R1.9
G01 X28.614 Z-81.987
G00 X34.614
Z-53.304
X26.616
G01 X25.642 Z-53.417
X24.386 Z-54.422
G03 X23.658 Z-55.647 R11.337
G01 Z-57.182
G03 X25.642 Z-58.968 R6.9
G01 X26.552 Z-59.175
X27.452
G00 X32.552
Z-55.647
X24.992
G01 X23.658
G03 X22.876 Z-56.598 R11.337
X22.859 Z-56.615 R1.9
G02 X22.892 Z-56.726 R.1
G03 X23.658 Z-57.182 R6.9
G01 X24.65 Z-57.247
G00 X30.65
Z-63.809
G01 X25.642
G03 X24.422 Z-65.045 R6.9
G01 X23.658 Z-65.656
Z-71.222
G03 X25.642 Z-73.007 R6.9
G01 X26.552 Z-73.214
G00 X32.552
Z-65.544
X24.633
G01 X23.658 Z-65.656
X21.675 Z-67.243
Z-70.133
G02 X21.744 Z-70.208 R.1
G03 X23.658 Z-71.222 R6.9
G01 X24.65 Z-71.287
G00 X30.65
Z-84.109
X28.552
G01 X27.625 Z-84.296
X25.642 Z-86.635
Z-90.373
X27.625 Z-92.09
X28.591 Z-92.22
X29.491
G00 X34.591
Z-86.635
X26.984
G01 X25.642
X24.981 Z-87.415
X25.308 Z-90.084
X25.642 Z-90.373
X26.608 Z-90.502
G00 X48.837
Z-17.342
X44.037
G01 X43.466 Z-17.752
G03 Z-18.068 R.9
G01 X43.378 Z-18.318
G03 X43.192 Z-18.586 R.9
G01 X42.926 Z-18.835
G03 X42.865 Z-18.887 R.9
G01 X19.648 Z-37.464
X20.2 Z-38.213
X20.744 Z-38.613
G03 X20.854 Z-38.706 R.9
G01 X21.334 Z-39.171
G03 X21.429 Z-39.279 R.9
G01 X21.746 Z-39.719
G03 X21.813 Z-39.838 R.9
G01 X21.989 Z-40.255
G03 X22.028 Z-40.429 R.9
G01 X22.048 Z-41.196
G03 X22.014 Z-41.382 R.9
G01 X21.742 Z-42.07
G03 X21.712 Z-42.134 R.9
G01 X21.093 Z-43.262
X21.022 Z-43.64
X21.118 Z-43.966
X21.439 Z-44.319
X22.154 Z-44.77
X25.964 Z-46.597
G03 X26.101 Z-46.67 R.9
G01 X27.215 Z-47.339
G03 X27.397 Z-47.47 R.9
G01 X27.787 Z-47.813
G03 X27.949 Z-48.004 R.9
G01 X28.162 Z-48.365
G03 X28.235 Z-48.636 R.9
G01 X28.22 Z-49.027
G03 X28.126 Z-49.298 R.9
G01 X27.834 Z-49.73
G03 X27.655 Z-49.919 R.9
G01 X22.511 Z-54.035
G03 X21.063 Z-56.176 R10.337
X21.055 Z-56.184 R.9
G02 X21.418 Z-57.402 R1.1
G03 X22.726 Z-64.515 R5.9
G01 X19.675 Z-66.957
Z-70.133
G02 X20.436 Z-70.965 R1.1
G03 X22.726 Z-78.555 R5.9
G01 X21.994 Z-79.14
G02 X22.369 Z-80.265 R1.1
G03 X25.991 Z-82.489 R52.045
X26.222 Z-83.389 R.9
G01 X22.956 Z-87.241
X23.341 Z-90.38
X26.802 Z-93.377
G02 X28.452 Z-93.92 R1.1
G03 X32.745 Z-97.274 R2.572
G02 X32.901 Z-97.404 R.1
G03 X43.224 Z-99.801 R10.9
G01 X44.221 Z-99.758
G00 X50.221
X200. Z100. M09
M01

N3 ( Desbaste DE5 )
G54
T0202 (DNMG 431 80DEG SQR HOLDER)
G97 S2000 M03
G99 G18 G00 Z-20.417
M08
X43.353
G01 X37.353 Z-23.417 F.4
X36.646 Z-23.064
Z-22.02
G02 X38.646 Z-21.463 R6.9
G01 X39.627 Z-21.56
G00 X45.627
Z-24.852
X35.56
G01 X34.853 Z-24.498
Z-22.39
G02 X36.309 Z-22.094 R31.9
X36.646 Z-22.02 R6.9
G00 X42.646
Z-26.287
X33.767
G01 X33.06 Z-25.933
Z-22.727
G02 X34.853 Z-22.39 R31.9
G01 X35.769 Z-22.59
G00 X41.769
Z-27.721
X31.974
G01 X31.267 Z-27.368
Z-23.033
G02 X33.06 Z-22.727 R31.9
G01 X33.964 Z-22.94
G00 X39.964
Z-29.156
X30.181
G01 X29.474 Z-28.803
Z-24.041
G03 X30.929 Z-23.088 R8.1
G02 X31.267 Z-23.033 R31.9
G01 X32.158 Z-23.26
G00 X38.158
Z-30.591
X28.388
G01 X27.68 Z-30.237
Z-25.898
G03 X29.474 Z-24.041 R8.1
G01 X30.452 Z-23.938
G00 X36.452
Z-32.026
X26.595
G01 X25.887 Z-31.672
Z-28.456
G02 X25.923 Z-28.423 R1.9
G01 X26.478 Z-27.896
G02 X26.744 Z-27.576 R1.9
G01 X27.065 Z-27.062
G02 X27.163 Z-26.87 R1.9
G03 X27.68 Z-25.898 R8.1
G01 X28.575 Z-25.675
G00 X34.575
Z-33.46
X24.801
G01 X24.094 Z-33.107
Z-29.618
X24.558 Z-29.368
G02 X24.838 Z-29.198 R1.9
G01 X25.628 Z-28.659
G02 X25.887 Z-28.456 R1.9
G00 X31.887
Z-34.895
X23.008
G01 X22.301 Z-34.542
Z-30.724
X22.644 Z-30.331
X23.287 Z-30.042
G02 X23.535 Z-29.92 R1.9
G01 X24.094 Z-29.618
X25.094 Z-29.6
X25.994
G00 X31.094
Z-35.801
X23.276
G01 X21.897
X20.989 Z-35.592
X20.947 Z-35.535
G03 X20.694 Z-34.927 R2.1
G01 X20.515 Z-33.339
G03 X20.858 Z-32.382 R2.1
G01 X22.301 Z-30.724
X23.232 Z-30.541
G00 Z-36.957
X20.798
G01 X19.858 Z-36.786
X19.283 Z-36.17
X19.07 Z-35.881
G03 X18.697 Z-34.983 R3.1
G01 X18.518 Z-33.395
G03 X19.024 Z-31.983 R3.1
G01 X20.984 Z-29.732
X21.95 Z-29.298
G02 X22.068 Z-29.24 R.9
G01 X23.092 Z-28.688
G02 X23.224 Z-28.608 R.9
G01 X24.014 Z-28.069
G02 X24.154 Z-27.957 R.9
G01 X24.709 Z-27.43
G02 X24.835 Z-27.278 R.9
G01 X25.156 Z-26.764
G02 X25.202 Z-26.673 R.9
G03 X29.817 Z-22.214 R9.1
G02 X35.533 Z-21.172 R30.9
X40.762 Z-19.014 R5.9
G01 X41.217 Z-18.873
G02 X41.392 Z-18.811 R.9
G01 X42.015 Z-18.563
G02 X42.235 Z-18.459 R.9
G01 X42.68 Z-18.21
G02 X42.865 Z-18.087 R.9
G01 X43.839 Z-17.975
G00 Z-53.585
X23.085
G01 X22.541 Z-53.165
G02 X22.974 Z-51.467 R10.337
G01 X24.381 Z-50.935
G02 X24.508 Z-50.883 R.9
G01 X26.014 Z-50.197
G02 X26.157 Z-50.124 R.9
G01 X26.865 Z-49.719
G02 X27.028 Z-49.611 R.9
G01 X27.646 Z-49.126
G02 X27.655 Z-49.119 R.9
G01 X28.63 Z-49.006
G00 X32.43
Z-66.795
X20.382
G01 X19.675 Z-66.442
Z-65.884
G03 X20.436 Z-65.052 R1.1
G02 X22.726 Z-63.715 R5.9
G01 X23.7 Z-63.603
G00 X48.187
X200. Z100. M09
M01

N4 ( Acabado DE1 )
G54
T0606 (DNMG 431 80DEG SQR HOLDER)
G97 S3795 M03
G99 G18 G00 Z-86.847
M08
X30.618
G01 X24.618 Z-89.847 F.3
X23.618
X22.29 Z-89.183
X21.943 Z-86.355
X25.301 Z-82.394
G02 X25.199 Z-81.994 R.4
X21.611 Z-79.791 R51.452
G03 X21.451 Z-77.806 R1.6
G02 X20.356 Z-70.81 R5.4
G01 X19.296 Z-70.28
G03 X18.675 Z-69.333 R1.6
G01 Z-65.884
G03 X19.782 Z-64.674 R1.6
G02 X20.681 Z-56.94 R5.4
G03 X20.153 Z-55.168 R1.6
G02 X20.156 Z-55.165 R.4
X21.991 Z-51.212 R9.809
G01 X23.778 Z-50.537
G02 X23.834 Z-50.513 R.4
G01 X25.34 Z-49.827
G02 X25.404 Z-49.795 R.4
G01 X26.112 Z-49.39
G02 X26.185 Z-49.342 R.4
G01 X26.803 Z-48.857
G02 X26.887 Z-48.77 R.4
G01 X27.179 Z-48.338
G02 X27.22 Z-48.217 R.4
G01 X27.235 Z-47.826
G02 X27.203 Z-47.706 R.4
G01 X26.99 Z-47.345
G02 X26.918 Z-47.26 R.4
G01 X26.528 Z-46.917
G02 X26.447 Z-46.859 R.4
G01 X25.333 Z-46.19
G02 X25.284 Z-46.164 R.4
G01 X20.807 Z-43.925
X20.58 Z-43.782
X20.149 Z-43.309
X20.016 Z-42.853
X20.105 Z-42.372
X20.748 Z-41.201
G02 X20.761 Z-41.173 R.4
G01 X21.033 Z-40.485
G02 X21.048 Z-40.403 R.4
G01 X21.028 Z-39.635
G02 X21.011 Z-39.558 R.4
G01 X20.835 Z-39.141
G02 X20.805 Z-39.088 R.4
G01 X20.488 Z-38.648
G02 X20.446 Z-38.6 R.4
G01 X19.965 Z-38.135
G02 X19.916 Z-38.094 R.4
G01 X19.304 Z-37.643
X18.132 Z-36.054
G03 X17.699 Z-35.011 R3.6
G01 X17.52 Z-33.423
G03 X18.107 Z-31.783 R3.6
G01 X20.154 Z-29.433
X21.282 Z-28.926
G02 X21.335 Z-28.9 R.4
G01 X22.358 Z-28.348
G02 X22.417 Z-28.313 R.4
G01 X23.207 Z-27.773
G02 X23.269 Z-27.724 R.4
G01 X23.824 Z-27.197
G02 X23.88 Z-27.129 R.4
G01 X24.201 Z-26.615
G02 X24.222 Z-26.575 R.4
G03 X29.125 Z-21.852 R9.6
G01 X30.828 Z-22.002
X31.402 Z-22.412
G00 X56.707
Z-108.037
X50.707
G01 X50. Z-107.683
Z-107.346
G02 X43.908 Z-99.992 R10.4
G01 X39.38 Z-97.728
Z-97.228
G00 X56.
X200. Z100. M09
M01

N5 ( Acabado DE2 )
G54
T0606 (DNMG 431 80DEG SQR HOLDER)
G97 S3000 M03
G99 G18 G00 Z-52.634
M08
X26.499
G01 X20.499 Z-55.634 F.2
X20.156 Z-55.165
G02 X21.99 Z-51.212 R9.837
G01 X23.778 Z-50.537
G02 X23.834 Z-50.513 R.4
G01 X25.34 Z-49.827
G02 X25.404 Z-49.795 R.4
G01 X26.112 Z-49.39
G02 X26.185 Z-49.342 R.4
G01 X26.803 Z-48.857
G02 X26.887 Z-48.77 R.4
G01 X27.179 Z-48.338
G02 X27.22 Z-48.217 R.4
G01 X27.235 Z-47.826
G02 X27.203 Z-47.706 R.4
G01 X26.99 Z-47.345
G02 X26.918 Z-47.26 R.4
G01 X26.528 Z-46.917
G02 X26.447 Z-46.859 R.4
G01 X25.333 Z-46.19
G02 X25.284 Z-46.164 R.4
G01 X20.807 Z-43.925
X20.58 Z-43.782
X20.149 Z-43.309
X20.016 Z-42.853
X20.105 Z-42.372
X20.748 Z-41.201
G02 X20.761 Z-41.173 R.4
G01 X21.033 Z-40.485
G02 X21.048 Z-40.403 R.4
G01 X21.028 Z-39.635
G02 X21.011 Z-39.558 R.4
G01 X20.835 Z-39.141
G02 X20.805 Z-39.088 R.4
G01 X20.488 Z-38.648
G02 X20.446 Z-38.6 R.4
G01 X19.965 Z-38.135
G02 X19.916 Z-38.094 R.4
G01 X19.304 Z-37.643
X18.132 Z-36.054
G03 X17.699 Z-35.011 R3.6
G01 X17.52 Z-33.423
G03 X18.107 Z-31.783 R3.6
G01 X20.154 Z-29.433
X21.282 Z-28.926
G02 X21.335 Z-28.9 R.4
G01 X22.358 Z-28.348
G02 X22.417 Z-28.313 R.4
G01 X23.207 Z-27.773
G02 X23.269 Z-27.724 R.4
G01 X23.824 Z-27.197
G02 X23.88 Z-27.129 R.4
G01 X24.201 Z-26.615
G02 X24.222 Z-26.575 R.4
G03 X29.275 Z-21.774 R9.6
G02 X35.145 Z-20.712 R30.4
X40.047 Z-18.647 R5.4
G01 X40.691 Z-18.448
G02 X40.769 Z-18.42 R.4
G01 X41.392 Z-18.172
G02 X41.49 Z-18.126 R.4
G01 X41.935 Z-17.877
G02 X42.044 Z-17.799 R.4
G01 X42.311 Z-17.55
G02 X42.393 Z-17.431 R.4
G01 X42.482 Z-17.181
G02 X42.481 Z-17.041 R.4
G01 X42.392 Z-16.79
G02 X42.31 Z-16.672 R.4
G01 X42.042 Z-16.422
G02 X41.934 Z-16.345 R.4
G01 X41.488 Z-16.093
G02 X41.456 Z-16.076 R.4
G01 X40.169 Z-15.433
G02 X38.548 Z-12.342 R12.849
X38.371 Z-12.208 R.4
G01 X35.01 Z-10.527
Z-10.027
G00 Z-7.027
X73.176
Z-55.634
X20.499
G01 X20.156 Z-55.165
G02 X21.99 Z-51.212 R9.837
G01 X23.778 Z-50.537
G02 X23.834 Z-50.513 R.4
G01 X25.34 Z-49.827
G02 X25.404 Z-49.795 R.4
G01 X26.112 Z-49.39
G02 X26.185 Z-49.342 R.4
G01 X26.803 Z-48.857
G02 X26.887 Z-48.77 R.4
G01 X27.179 Z-48.338
G02 X27.22 Z-48.217 R.4
G01 X27.235 Z-47.826
G02 X27.203 Z-47.706 R.4
G01 X26.99 Z-47.345
G02 X26.918 Z-47.26 R.4
G01 X26.528 Z-46.917
G02 X26.447 Z-46.859 R.4
G01 X25.333 Z-46.19
G02 X25.284 Z-46.164 R.4
G01 X20.807 Z-43.925
X20.58 Z-43.782
X20.149 Z-43.309
X20.016 Z-42.853
X20.105 Z-42.372
X20.748 Z-41.201
G02 X20.761 Z-41.173 R.4
G01 X21.033 Z-40.485
G02 X21.048 Z-40.403 R.4
G01 X21.028 Z-39.635
G02 X21.011 Z-39.558 R.4
G01 X20.835 Z-39.141
G02 X20.805 Z-39.088 R.4
G01 X20.488 Z-38.648
G02 X20.446 Z-38.6 R.4
G01 X19.965 Z-38.135
G02 X19.916 Z-38.094 R.4
G01 X19.304 Z-37.643
X18.132 Z-36.054
G03 X17.699 Z-35.011 R3.6
G01 X17.52 Z-33.423
G03 X18.107 Z-31.783 R3.6
G01 X20.154 Z-29.433
X21.282 Z-28.926
G02 X21.335 Z-28.9 R.4
G01 X22.358 Z-28.348
G02 X22.417 Z-28.313 R.4
G01 X23.207 Z-27.773
G02 X23.269 Z-27.724 R.4
G01 X23.824 Z-27.197
G02 X23.88 Z-27.129 R.4
G01 X24.201 Z-26.615
G02 X24.222 Z-26.575 R.4
G03 X29.275 Z-21.774 R9.6
G02 X35.145 Z-20.712 R30.4
X40.047 Z-18.647 R5.4
G01 X40.691 Z-18.448
G02 X40.769 Z-18.42 R.4
G01 X41.392 Z-18.172
G02 X41.49 Z-18.126 R.4
G01 X41.935 Z-17.877
G02 X42.044 Z-17.799 R.4
G01 X42.311 Z-17.55
G02 X42.393 Z-17.431 R.4
G01 X42.482 Z-17.181
G02 X42.481 Z-17.041 R.4
G01 X42.392 Z-16.79
G02 X42.31 Z-16.672 R.4
G01 X42.042 Z-16.422
G02 X41.934 Z-16.345 R.4
G01 X41.488 Z-16.093
G02 X41.456 Z-16.076 R.4
G01 X40.169 Z-15.433
G02 X38.548 Z-12.342 R12.849
X38.371 Z-12.208 R.4
G01 X35.01 Z-10.527
Z-10.027
G00 X48.494
X200. Z100. M09
M01

N6 ( Acabado DE3 )
G54
T0505 (DNMG 431 80DEG SQR HOLDER)
G97 S3500 M03
G99 G18 G00 Z.168
M08
X4.493
G01 X-1.507 Z-2.832 F.2
X-.8 Z-3.186
G03 X15.367 Z-5.569 R14.9
G01 X16.668 Z-5.989
X17.86 Z-6.094
G03 X17.921 Z-6.101 R.4
G01 X19.194 Z-6.266
G03 X19.259 Z-6.276 R.4
G01 X20.454 Z-6.486
G03 X20.521 Z-6.499 R.4
G01 X21.638 Z-6.754
G03 X21.706 Z-6.772 R.4
G01 X22.745 Z-7.072
G03 X22.812 Z-7.094 R.4
G01 X23.773 Z-7.439
G03 X23.836 Z-7.465 R.4
G01 X24.719 Z-7.855
G03 X24.777 Z-7.883 R.4
G01 X25.582 Z-8.319
G03 X25.632 Z-8.349 R.4
G01 X26.359 Z-8.83
G03 X26.402 Z-8.862 R.4
G01 X27.05 Z-9.388
G03 X27.169 Z-9.598 R.4
G01 Z-9.998
X28.847
G03 X29.281 Z-10.062 R.4
G01 X38.24 Z-12.955
X39.217 Z-12.849
G00 X46.82
Z-15.977
X40.82
G01 X40.204 Z-16.371
G03 X40.215 Z-16.419 R12.849
G01 X40.691 Z-16.569
G03 X40.767 Z-16.596 R.4
G01 X41.392 Z-16.848
X42.386 Z-16.794
G00 X48.386
Z-44.247
X20.951
G01 X20.835 Z-44.743
X21.412 Z-45.108
X25.272 Z-46.958
X26.272 Z-46.947
G00 X32.435
Z-67.605
X19.462
Z-70.605
G01 X19.327 Z-71.1
G02 X19.782 Z-71.343 R1.6
G03 X20.356 Z-71.61 R5.4
G01 X21.356
G00 X30.565
Z-89.76
X22.971
G01 X22.309 Z-90.135
X22.357 Z-90.528
X25.936 Z-93.627
G02 X28.337 Z-94.417 R1.6
G03 X31.794 Z-97.119 R2.072
G02 X32.731 Z-97.897 R.6
G03 X43.908 Z-100.792 R10.4
G01 X44.908
G00 X50.908
X200. Z100. M09
M01

M05

M30
%
